X: 2888
T: Barnes Mor, The
R: reel
M: 4/4
K: Amajor
A2 GA FAEA|BEcE dEcB|(3ABA GA FAEc|(3BcB GB AdcB|
(3ABA GA FAED|CEAc dcdf|ecea fdfa|(3fga eg a3 g||
aA (3ABA eAcA|dcBA GBEg|aA (3ABA eAce|(3fga gb aefg|
aA (3ABA eAcA|dcBA GBEd|ecea fdfa|(3fga eg afec||

